icons/fill-new-nature-weather-sun-sunrisn-2.svg

<svg xmlns="http://www.w3.org/2000/svg" width="32px" height="32px" viewBox="0 0 32 32" version="1.1">
    <title>fill-new-nature-weather-sun-sunrisn-2</title>
    <g id="fill-new-nature-weather-sun-sunrisn-2" stroke-width="1" fill-rule="evenodd">
        <path d="M30,23 C30.5522847,23 31,23.4477153 31,24 C31,24.5522847 30.5522847,25 30,25 L2,25 C1.44771525,25 1,24.5522847 1,24 C1,23.4477153 1.44771525,23 2,23 L30,23 Z M23,27 C23.5522847,27 24,27.4477153 24,28 C24,28.5522847 23.5522847,29 23,29 L9,29 C8.44771525,29 8,28.5522847 8,28 C8,27.4477153 8.44771525,27 9,27 L23,27 Z M16,10 C22.0751322,10 27,14.9248678 27,21 L5,21 C5,14.9248678 9.92486775,10 16,10 Z M28.7279221,8.27207794 C29.1184464,8.66260223 29.1184464,9.29576721 28.7279221,9.6862915 L26.6066017,11.8076118 C26.2160774,12.1981361 25.5829124,12.1981361 25.1923882,11.8076118 C24.8018639,11.4170876 24.8018639,10.7839226 25.1923882,10.3933983 L27.3137085,8.27207794 C27.7042328,7.88155365 28.3373978,7.88155365 28.7279221,8.27207794 Z M4.6862915,8.27207794 L6.80761184,10.3933983 C7.19813614,10.7839226 7.19813614,11.4170876 6.80761184,11.8076118 C6.41708755,12.1981361 5.78392257,12.1981361 5.39339828,11.8076118 L3.27207794,9.6862915 C2.88155365,9.29576721 2.88155365,8.66260223 3.27207794,8.27207794 C3.66260223,7.88155365 4.29576721,7.88155365 4.6862915,8.27207794 Z M16,3 C16.5522847,3 17,3.44771525 17,4 L17,7 C17,7.55228475 16.5522847,8 16,8 C15.4477153,8 15,7.55228475 15,7 L15,4 C15,3.44771525 15.4477153,3 16,3 Z" id="&#24418;&#29366;" fill-rule="nonzero" />
    </g>
</svg>

<svg xmlns="http://www.w3.org/2000/svg" viewBox="0 0 32 32"><path fill="currentColor" d="M30 23a1 1 0 0 1 0 2H2a1 1 0 0 1 0-2zm-7 4a1 1 0 0 1 0 2H9a1 1 0 0 1 0-2zm-7-17c6.075 0 11 4.925 11 11H5c0-6.075 4.925-11 11-11m12.728-1.728a1 1 0 0 1 0 1.414l-2.121 2.122a1 1 0 1 1-1.415-1.415l2.122-2.12a1 1 0 0 1 1.414 0m-24.042 0 2.122 2.121a1 1 0 1 1-1.415 1.415l-2.12-2.122a1 1 0 0 1 1.413-1.414M16 3a1 1 0 0 1 1 1v3a1 1 0 0 1-2 0V4a1 1 0 0 1 1-1"/></svg>
